symbols/web/font_download_off/materialsymbolsoutlined/font_download_off_wght100_24px.svg

<svg xmlns="http://www.w3.org/2000/svg" height="24" width="24"><path d="m21.3 22.3-1.675-1.675q-.1.05-.2.063-.1.012-.225.012H4.8q-.625 0-1.063-.438Q3.3 19.825 3.3 19.2V4.8q0-.125.012-.225.013-.1.063-.2L2.25 3.25l.5-.5L21.8 21.8ZM4.8 20H19L4 5v14.2q0 .3.25.55.25.25.55.25Zm15.9-2.1-.7-.7V4.8q0-.3-.25-.55Q19.5 4 19.2 4H6.8l-.7-.7h13.1q.625 0 1.063.437.437.438.437 1.063Zm-6.675-6.675L12.9 10.1l-.85-2.4h-.1l-.375 1.075-.525-.525.7-2h.5ZM11.5 12.5Zm1.9-1.9Zm2.1 6.85-1.05-3 1.125 1.125.675 1.875Zm-7.75 0 2.55-7.15.525.525L9.8 13.75h3.95l.7.7h-4.9l-1.05 3Z"/></svg>

<svg xmlns="http://www.w3.org/2000/svg" height="24" width="24"><path d="M21.3 22.3 19.625 20.625Q19.525 20.675 19.425 20.688Q19.325 20.7 19.2 20.7H4.8Q4.175 20.7 3.737 20.262Q3.3 19.825 3.3 19.2V4.8Q3.3 4.675 3.312 4.575Q3.325 4.475 3.375 4.375L2.25 3.25L2.75 2.75L21.8 21.8ZM4.8 20H19L16.15 17.15H15.4L15 16L13.45 14.45H9.55L8.6 17.15H7.85L10.05 11.05L4 5V19.2Q4 19.5 4.25 19.75Q4.5 20 4.8 20ZM20.7 17.9 20 17.2V4.8Q20 4.5 19.75 4.25Q19.5 4 19.2 4H6.8L6.1 3.3H19.2Q19.825 3.3 20.263 3.737Q20.7 4.175 20.7 4.8ZM9.8 13.75H12.75L10.575 11.575ZM14.025 11.225 12.9 10.1 12.05 7.7H11.95L11.575 8.775L11.05 8.25L11.75 6.25H12.25ZM11.5 12.5Q11.5 12.5 11.5 12.5Q11.5 12.5 11.5 12.5ZM13.4 10.6Q13.4 10.6 13.4 10.6Q13.4 10.6 13.4 10.6Z"/></svg>
